src/asset/svg/ETH.svg

<svg width="24" height="24" viewBox="0 0 24 24" fill="none" xmlns="http://www.w3.org/2000/svg">
<path d="M12 24C18.6274 24 24 18.6274 24 12C24 5.37258 18.6274 0 12 0C5.37258 0 0 5.37258 0 12C0 18.6274 5.37258 24 12 24Z" fill="#3C3C3C"/>
<path fill-rule="evenodd" clip-rule="evenodd" d="M11.5052 9.82705C11.5175 9.82146 11.5279 9.81245 11.5351 9.8011C11.5424 9.78975 11.5462 9.77653 11.5462 9.76305V3.85605C11.5462 3.78405 11.4512 3.75805 11.4152 3.82105L6.81519 11.8111C6.80757 11.8239 6.80428 11.8389 6.8058 11.8538C6.80732 11.8687 6.81357 11.8827 6.82364 11.8938C6.83371 11.9048 6.84706 11.9124 6.86173 11.9153C6.87641 11.9183 6.89164 11.9164 6.90519 11.9101L11.5052 9.82705ZM11.5462 15.6831C11.5464 15.6957 11.5432 15.7082 11.5368 15.7192C11.5305 15.7302 11.5213 15.7393 11.5102 15.7455C11.4991 15.7516 11.4865 15.7547 11.4739 15.7542C11.4612 15.7538 11.4488 15.7499 11.4382 15.7431L6.81619 12.8501C6.80517 12.8435 6.79617 12.8341 6.79015 12.8228C6.78413 12.8115 6.78133 12.7987 6.78205 12.7859C6.78278 12.7731 6.78699 12.7608 6.79425 12.7502C6.8015 12.7397 6.81151 12.7313 6.82319 12.7261L11.4462 10.5631C11.4569 10.558 11.4688 10.5557 11.4806 10.5564C11.4925 10.5572 11.5039 10.5609 11.5139 10.5673C11.5239 10.5737 11.5321 10.5826 11.5378 10.593C11.5434 10.6035 11.5463 10.6152 11.5462 10.6271V15.6831ZM11.5062 20.7311C11.5062 20.8011 11.4162 20.828 11.3762 20.771L6.61619 13.7111C6.57319 13.6461 6.64819 13.5701 6.71319 13.6111L11.4732 16.6831C11.4832 16.6893 11.4915 16.698 11.4973 16.7083C11.5031 16.7186 11.5061 16.7302 11.5062 16.7421V20.7311ZM11.9002 9.82705C11.8879 9.82146 11.8775 9.81245 11.8702 9.8011C11.863 9.78975 11.8591 9.77653 11.8592 9.76305V3.85605C11.8592 3.78405 11.9542 3.75805 11.9912 3.82105L16.5902 11.8111C16.5978 11.8239 16.6011 11.8389 16.5996 11.8538C16.5981 11.8687 16.5918 11.8827 16.5817 11.8938C16.5717 11.9048 16.5583 11.9124 16.5436 11.9153C16.529 11.9183 16.5137 11.9164 16.5002 11.9101L11.9002 9.82705ZM11.8592 15.6831C11.8592 15.7381 11.9192 15.7721 11.9672 15.7431L16.5892 12.8501C16.6002 12.8435 16.6092 12.8341 16.6152 12.8228C16.6212 12.8115 16.624 12.7987 16.6233 12.7859C16.6226 12.7731 16.6184 12.7608 16.6111 12.7502C16.6039 12.7397 16.5939 12.7313 16.5822 12.7261L11.9592 10.5631C11.9485 10.558 11.9366 10.5557 11.9248 10.5564C11.9129 10.5572 11.9014 10.5609 11.8914 10.5673C11.8814 10.5737 11.8732 10.5826 11.8676 10.593C11.862 10.6035 11.8591 10.6152 11.8592 10.6271V15.6831ZM11.8592 20.7351C11.8592 20.805 11.9492 20.832 11.9882 20.775L16.8182 13.7111C16.8612 13.6471 16.7862 13.5701 16.7212 13.6111L11.8912 16.6841C11.8812 16.6905 11.873 16.6994 11.8674 16.7099C11.8618 16.7204 11.859 16.7322 11.8592 16.7441V20.7351Z" fill="white"/>
</svg>

<svg width="24" height="24" fill="none" xmlns="http://www.w3.org/2000/svg"><circle cx="12" cy="12" r="12" fill="#008778"/><path fill-rule="evenodd" clip-rule="evenodd" d="M11.505 9.827a.07.07 0 00.041-.064V3.856c0-.072-.095-.098-.131-.035l-4.6 7.99a.07.07 0 00.09.099l4.6-2.083zm.041 5.856a.07.07 0 01-.108.06L6.816 12.85a.07.07 0 01.007-.124l4.623-2.163a.07.07 0 01.1.064v5.056zm-.04 5.048c0 .07-.09.097-.13.04l-4.76-7.06c-.043-.065.032-.141.097-.1l4.76 3.072a.07.07 0 01.033.059v3.989zM11.9 9.827a.07.07 0 01-.041-.064V3.856c0-.072.095-.098.132-.035l4.599 7.99a.07.07 0 01-.09.099l-4.6-2.083zm-.041 5.856c0 .055.06.089.108.06l4.622-2.893a.07.07 0 00-.007-.124l-4.623-2.163a.07.07 0 00-.1.064v5.056zm0 5.052c0 .07.09.097.129.04l4.83-7.064c.043-.064-.032-.141-.097-.1l-4.83 3.073a.07.07 0 00-.032.06v3.991z" fill="#fff"/></svg>
